source/img/twitter.svg

<svg width="25" height="20" viewBox="0 0 25 20" fill="none" xmlns="http://www.w3.org/2000/svg">
<path d="M24.225 4.3001C24.025 3.9001 23.325 4.0001 22.825 3.9001H21.725C21.825 3.5001 22.025 3.3001 22.225 2.9001C22.325 2.5001 22.525 2.2001 22.425 1.6001C22.525 1.4001 22.625 1.2001 22.725 1.0001C22.825 0.900095 22.925 0.500098 22.825 0.300098C22.725 0.100098 22.525 0.100098 22.225 0.100098C22.125 0.100098 22.025 0.200096 22.025 0.200096C21.625 0.600096 21.225 1.2001 20.725 1.6001H20.625C20.525 1.6001 20.625 1.6001 20.525 1.7001C20.425 1.8001 20.225 1.9001 20.125 1.9001C19.825 2.1001 19.625 2.3001 19.225 2.4001C18.725 2.2001 18.025 2.1001 17.325 2.0001C16.125 2.1001 15.025 2.2001 14.325 2.7001C13.425 3.0001 12.825 3.7001 12.225 4.3001C12.225 4.6001 11.925 4.7001 11.825 5.0001C11.825 5.0001 11.825 5.1001 11.725 5.1001C11.725 5.3001 11.625 5.4001 11.625 5.6001C11.625 5.7001 11.825 6.0001 11.625 6.1001C10.825 6.0001 10.125 5.5001 9.52501 5.1001C8.82501 4.7001 8.02501 4.5001 7.42501 4.0001C6.72502 3.7001 6.12501 3.2001 5.62501 2.7001C5.42501 2.4001 5.12501 2.2001 4.92501 1.8001C4.52501 1.6001 4.72501 0.900097 4.22501 0.900097C3.92501 0.900097 3.92501 1.1001 3.82501 1.3001C3.72501 1.5001 3.42501 1.5001 3.42501 1.8001C3.42501 1.8001 3.42501 1.9001 3.32501 1.9001C3.12501 3.0001 2.82501 3.9001 2.82501 5.2001C2.92501 5.6001 3.12502 5.9001 3.42501 6.2001C3.02501 6.3001 2.72501 6.4001 2.52501 6.7001C2.42501 7.8001 2.92501 8.3001 3.22501 9.0001C3.32501 9.40009 3.62501 9.7001 3.82501 10.0001C3.82501 10.2001 4.02501 10.3001 4.12501 10.4001C4.12501 10.5001 4.22501 10.5001 4.22501 10.6001C4.22501 10.7001 4.52501 10.8001 4.32501 10.8001C3.92501 10.9001 3.32501 10.9001 3.02501 11.2001C2.92501 11.5001 2.92501 12.0001 3.02501 12.3001C3.02501 12.5001 3.32501 12.6001 3.32501 12.8001C3.82501 13.2001 4.42501 13.5001 4.92501 13.9001C5.52501 14.1001 6.12501 14.2001 6.82501 14.3001C6.72501 14.6001 6.52501 14.9001 6.22501 15.0001C5.42501 15.4001 4.42501 15.5001 3.52501 15.7001C2.92501 15.7001 2.52501 15.9001 1.92501 15.9001C1.62501 16.0001 1.02501 16.0001 0.825013 16.1001C0.725013 16.2001 0.725012 16.2001 0.625012 16.3001C0.525012 16.7001 0.725013 17.0001 1.02501 17.2001C1.02501 17.5001 1.22501 17.5001 1.42501 17.6001C1.52501 17.8001 1.72501 17.9001 1.82501 18.0001C2.32501 18.5001 3.12501 18.8001 3.72501 19.1001C4.52501 19.3001 5.32501 19.5001 6.22501 19.6001C7.12501 19.7001 8.12501 19.7001 9.02501 19.8001H10.025C10.525 19.9001 11.225 19.9001 11.925 19.9001C12.025 19.8001 12.225 19.8001 12.425 19.8001C12.925 19.5001 13.625 19.4001 14.025 19.1001C14.625 18.9001 15.025 18.5001 15.625 18.2001C16.525 17.4001 17.525 16.9001 18.125 15.8001C18.325 15.6001 18.525 15.4001 18.525 15.1001C18.825 14.9001 18.925 14.6001 19.125 14.4001C19.525 14.0001 19.825 13.5001 20.125 13.0001C20.425 12.5001 20.725 11.9001 21.025 11.4001C21.025 11.0001 21.325 10.9001 21.325 10.5001C21.525 10.3001 21.525 9.8001 21.725 9.6001C21.725 9.3001 21.725 9.2001 21.825 9.0001C21.825 7.7001 21.825 6.6001 21.525 5.6001C22.125 5.4001 22.725 5.3001 23.125 5.0001C23.925 5.3001 24.425 4.9001 24.225 4.3001ZM20.825 8.3001C20.625 9.2001 20.225 9.7001 19.825 10.3001C19.925 10.7001 19.725 10.8001 19.725 11.2001C19.525 11.5001 19.425 11.9001 19.325 12.2001C19.125 12.5001 19.025 12.8001 18.825 13.1001C18.425 13.6001 18.025 14.2001 17.625 14.7001C17.225 15.3001 16.725 15.7001 16.325 16.2001C15.925 16.7001 15.425 17.1001 14.925 17.5001C14.425 17.7001 14.025 17.9001 13.625 18.2001C13.425 18.3001 13.125 18.4001 12.925 18.5001C12.725 18.6001 12.425 18.6001 12.225 18.8001C11.125 18.9001 9.92501 19.0001 8.62501 18.9001C7.62501 18.8001 6.52501 18.7001 5.62501 18.5001C4.72501 18.3001 4.12501 17.8001 3.32501 17.5001C3.52501 17.3001 3.92501 17.3001 4.32501 17.3001C4.32501 17.1001 4.72501 17.3001 4.72501 17.2001C5.02501 17.3001 5.02501 17.1001 5.22501 17.1001C5.82501 16.9001 6.42501 16.8001 6.92501 16.5001C7.22502 16.4001 7.32501 16.1001 7.62501 15.9001C7.62501 15.7001 7.72501 15.6001 7.82501 15.5001C7.82501 15.2001 8.02501 15.1001 7.92501 14.7001C8.02501 14.5001 8.22501 14.4001 8.22501 14.0001C8.12501 13.9001 8.12501 13.7001 7.92501 13.6001C7.92501 13.4001 7.52501 13.5001 7.52501 13.4001C7.22501 13.4001 7.12501 13.4001 6.92501 13.3001C6.72502 13.3001 6.42501 13.4001 6.42501 13.2001C5.62501 13.2001 5.12501 12.8001 4.52501 12.5001C4.92501 12.2001 5.52501 12.1001 5.82501 11.8001C6.32501 11.7001 6.92501 11.7001 6.92501 11.1001C6.92501 10.4001 6.12501 10.4001 5.62501 10.3001C4.82501 9.6001 4.42501 8.6001 3.82501 7.8001C4.02501 7.6001 4.42501 7.6001 4.52501 7.4001C5.02501 7.5001 5.02501 7.1001 5.22501 6.9001C5.22501 6.4001 4.92501 6.3001 4.62501 6.1001C4.32501 5.9001 4.12502 5.6001 3.92501 5.4001C3.92501 4.6001 3.92501 3.7001 4.02501 3.0001C4.12501 3.0001 4.12501 3.0001 4.12501 3.1001C4.32501 3.5001 4.72502 3.9001 4.92501 4.3001C5.42501 4.7001 5.82501 5.2001 6.52501 5.4001C7.02501 5.8001 7.62501 6.0001 8.12501 6.4001C8.72501 6.7001 9.32501 7.0001 9.82501 7.3001C10.525 7.5001 10.925 8.0001 11.825 7.9001C12.025 7.8001 12.225 7.7001 12.425 7.6001C12.725 7.1001 12.325 6.5001 12.525 6.0001C12.825 5.3001 13.325 5.0001 13.825 4.5001C14.125 4.3001 14.425 4.2001 14.625 4.0001C14.925 3.9001 15.325 3.8001 15.625 3.6001C16.025 3.6001 16.325 3.5001 16.625 3.5001H17.925C18.125 3.6001 18.425 3.6001 18.625 3.6001C18.825 3.7001 19.025 3.9001 19.325 4.0001C20.125 4.7001 20.625 5.7001 20.725 7.0001C20.725 7.3001 20.825 7.7001 20.825 8.3001ZM21.125 2.7001C21.025 3.0001 20.925 3.4001 20.525 3.5001C20.525 3.4001 20.425 3.4001 20.425 3.3001C20.425 3.1001 20.625 3.1001 20.725 3.0001C20.825 2.9001 20.925 2.7001 21.125 2.7001C21.225 2.7001 21.125 2.6001 21.125 2.7001ZM15.625 5.7001C15.825 5.8001 15.925 6.0001 16.125 6.1001C16.225 6.3001 16.425 6.4001 16.725 6.5001C16.725 6.3001 17.025 6.5001 17.125 6.3001C17.325 6.3001 17.325 6.1001 17.425 6.0001C17.425 5.5001 17.325 5.0001 17.025 4.7001C16.325 4.2001 15.325 4.7001 15.625 5.7001Z" fill="black"/>
</svg>

<svg width="25" height="20" fill="none" xmlns="http://www.w3.org/2000/svg"><path d="M24.23 4.3c-.2-.4-.9-.3-1.4-.4h-1.1c.1-.4.3-.6.5-1 .1-.4.3-.7.2-1.3l.3-.6c.1-.1.2-.5.1-.7-.1-.2-.3-.2-.6-.2-.1 0-.2.1-.2.1-.4.4-.8 1-1.3 1.4h-.1c-.1 0 0 0-.1.1s-.3.2-.4.2c-.3.2-.5.4-.9.5-.5-.2-1.2-.3-1.9-.4-1.2.1-2.3.2-3 .7-.9.3-1.5 1-2.1 1.6 0 .3-.3.4-.4.7 0 0 0 .1-.1.1 0 .2-.1.3-.1.5 0 .1.2.4 0 .5-.8-.1-1.5-.6-2.1-1-.7-.4-1.5-.6-2.1-1.1-.7-.3-1.3-.8-1.8-1.3-.2-.3-.5-.5-.7-.9-.4-.2-.2-.9-.7-.9-.3 0-.3.2-.4.4-.1.2-.4.2-.4.5 0 0 0 .1-.1.1-.2 1.1-.5 2-.5 3.3.1.4.3.7.6 1-.4.1-.7.2-.9.5-.1 1.1.4 1.6.7 2.3.1.4.4.7.6 1 0 .2.2.3.3.4 0 .1.1.1.1.2s.3.2.1.2c-.4.1-1 .1-1.3.4-.1.3-.1.8 0 1.1 0 .2.3.3.3.5.5.4 1.1.7 1.6 1.1.6.2 1.2.3 1.9.4-.1.3-.3.6-.6.7-.8.4-1.8.5-2.7.7-.6 0-1 .2-1.6.2-.3.1-.9.1-1.1.2l-.2.2c-.1.4.1.7.4.9 0 .3.2.3.4.4.1.2.3.3.4.4.5.5 1.3.8 1.9 1.1.8.2 1.6.4 2.5.5.9.1 1.9.1 2.8.2h1c.5.1 1.2.1 1.9.1.1-.1.3-.1.5-.1.5-.3 1.2-.4 1.6-.7.6-.2 1-.6 1.6-.9.9-.8 1.9-1.3 2.5-2.4.2-.2.4-.4.4-.7.3-.2.4-.5.6-.7.4-.4.7-.9 1-1.4.3-.5.6-1.1.9-1.6 0-.4.3-.5.3-.9.2-.2.2-.7.4-.9 0-.3 0-.4.1-.6 0-1.3 0-2.4-.3-3.4.6-.2 1.2-.3 1.6-.6.8.3 1.3-.1 1.1-.7zm-3.4 4c-.2.9-.6 1.4-1 2 .1.4-.1.5-.1.9-.2.3-.3.7-.4 1-.2.3-.3.6-.5.9-.4.5-.8 1.1-1.2 1.6-.4.6-.9 1-1.3 1.5s-.9.9-1.4 1.3c-.5.2-.9.4-1.3.7-.2.1-.5.2-.7.3-.2.1-.5.1-.7.3-1.1.1-2.3.2-3.6.1-1-.1-2.1-.2-3-.4-.9-.2-1.5-.7-2.3-1 .2-.2.6-.2 1-.2 0-.2.4 0 .4-.1.3.1.3-.1.5-.1.6-.2 1.2-.3 1.7-.6.3-.1.4-.4.7-.6 0-.2.1-.3.2-.4 0-.3.2-.4.1-.8.1-.2.3-.3.3-.7-.1-.1-.1-.3-.3-.4 0-.2-.4-.1-.4-.2-.3 0-.4 0-.6-.1-.2 0-.5.1-.5-.1-.8 0-1.3-.4-1.9-.7.4-.3 1-.4 1.3-.7.5-.1 1.1-.1 1.1-.7 0-.7-.8-.7-1.3-.8-.8-.7-1.2-1.7-1.8-2.5.2-.2.6-.2.7-.4.5.1.5-.3.7-.5 0-.5-.3-.6-.6-.8-.3-.2-.5-.5-.7-.7 0-.8 0-1.7.1-2.4.1 0 .1 0 .1.1.2.4.6.8.8 1.2.5.4.9.9 1.6 1.1.5.4 1.1.6 1.6 1 .6.3 1.2.6 1.7.9.7.2 1.1.7 2 .6l.6-.3c.3-.5-.1-1.1.1-1.6.3-.7.8-1 1.3-1.5.3-.2.6-.3.8-.5.3-.1.7-.2 1-.4.4 0 .7-.1 1-.1h1.3c.2.1.5.1.7.1.2.1.4.3.7.4.8.7 1.3 1.7 1.4 3 0 .3.1.7.1 1.3zm.3-5.6c-.1.3-.2.7-.6.8 0-.1-.1-.1-.1-.2 0-.2.2-.2.3-.3.1-.1.2-.3.4-.3.1 0 0-.1 0 0zm-5.5 3c.2.1.3.3.5.4.1.2.3.3.6.4 0-.2.3 0 .4-.2.2 0 .2-.2.3-.3 0-.5-.1-1-.4-1.3-.7-.5-1.7 0-1.4 1z" fill="#000"/></svg>
